X: 40
T: Justice Ballance
R: reel
M: C|
L: 1/8
Z: 2011 John Chambers <jc:trillian.mit.edu>
B: Charles & Samuel Thompson eds "Twenty Four Country Dances", London 1774, p._20 #2
K: G
% - - - - - - - - - - - - - - - - - - - - - - - - -
D |\
GABc defd | g2fe d2d2 | ecBA dBAG | cABG {G}F2ED |
GABc defd | g2fe a2g2 | fafd ege^c | d2D2 D3 :|
|: A |\
defg a2c2 | c2BA B2d2 | ecBA dBAG | cABG AFED |
GABc defd | g2fe d2c2 | BdBG AcAF | G2G,2 G,3 :|
% - - - - - - - - Dance description - - - - - - - -
%%begintext align
%% 1st Cu. lead thro' the 2d Cu. & cast up .|. 2d Cu.
%% lead thro' the 1st Cu. & cast off :|. cross over
%% & turn .|: Right & Left :|:
%%endtext

%%sep 1 1 500
